X: 43
T: Bo Beshalom
C: Nurit Hirsh 1983
O: Israel
F: https://www.youtube.com/watch?v=qVC95mjl_gU
F: https://www.youtube.com/watch?v=BI9KOJi9zGA
M: 4/4
L: 1/8
K: Dm
Q: 1/4=96
 "Dm"   A4 "Gm"  G2 FG      | "Dm" A2 A2 "Gm"  G2 FG|\
 "Dm" A4 "Gm"  G2 FG        | "Dm" A2 A2 "Gm"  G4   |
 "Gm"   A,2 D2 "Dm"  D2 D2  | "C" EFGF E2EG         |\
 "Dm" F2 D2 D2 ^CD          | "C" E8                |
 "Gm"   A,2 D2 "Dm"  D2 D2  | "Gm" EFG2 "Dm"  A2AA  |\
 "Edim" =B2 E2 E2 B2        | "Gm" A6z2             |:
 "Dm"   A2 A2 "Gm"  G2 FG   | "Dm" A2 A2 "Gm"  G2 FG|\
 "Dm" A2 A2 "Gm"  G2 F "C" E|"Dm"   F4 "C" E4       |
 B,2 D2 EF G2               | "Dm" FE A4 A2         |\
 "C" BAGF E2 "Dm" F2        |D4 z4                  :|


